icons/line/newspaper.svg

<svg width="24" height="24" viewBox="0 0 24 24" fill="none" xmlns="http://www.w3.org/2000/svg">
<path d="M19 20C19.6667 20 21 19.6 21 18C21 16.9135 21 13.3063 21 10.9984C21 9.89384 20.1046 9 19 9H17M19 20H17H5C3.89543 20 3 19.1046 3 18V6C3 4.89543 3.89543 4 5 4H15C16.1046 4 17 4.89543 17 6V9M19 20C17.4 20 17 18.6667 17 18V9M7 16H13M7 8H13V12H7V8Z" stroke="currentColor" stroke-width="2" stroke-linecap="round" stroke-linejoin="round"/>
</svg>

<svg width="24" height="24" fill="none" xmlns="http://www.w3.org/2000/svg"><path d="M19 20c.667 0 2-.4 2-2v-7.002A1.999 1.999 0 0019 9h-2m2 11H5a2 2 0 01-2-2V6a2 2 0 012-2h10a2 2 0 012 2v3m2 11c-1.6 0-2-1.333-2-2V9M7 16h6M7 8h6v4H7V8z" stroke="currentColor" stroke-width="2" stroke-linecap="round" stroke-linejoin="round"/></svg>
